X: 32341
T: Pinch Of Snuff, The
R: reel
M: 4/4
K: Dmajor
f3e dcdB|ADFD EFGB|A3B =cBcd|eA (3Bcd efge|
f3e dcdB|ADFD EFGB|A3B =cBcd|eA (3Bcd efge||
f2 df afdf|f2 df efge|f2 df afdf|eA (3Bcd efge|
f2 df afdf|f2 df efge|f2 df afdf|eA (3Bcd efge||

